X:15382
T:Short-Coated Mary
R:reel
Z:id:hn-reel-546
M:C|
K:Ador
A2e2 edef|g2dB GABG|A2e2 edef|1 g2dB ~A3G:|2 g2dB ~A3f||
|:g2ge a2a2|geeg Bdde|1 g2ge agea|gedB ~A3f:|2 A2e2 edef|g2dB ~A3G||
